assets/icons/magnifying-glass-filled.svg

<?xml version="1.0" encoding="UTF-8" standalone="no"?>
<svg
   viewBox="0 0 24 24"
   height="24"
   width="24"
   version="1.1"
   id="svg10"
   sodipodi:docname="magnifying-glass-filled.svg"
   inkscape:version="1.2 (1:1.2.1+202207142221+cd75a1ee6d)"
   xmlns:inkscape="http://www.inkscape.org/namespaces/inkscape"
   xmlns:sodipodi="http://sodipodi.sourceforge.net/DTD/sodipodi-0.dtd"
   xmlns="http://www.w3.org/2000/svg"
   xmlns:svg="http://www.w3.org/2000/svg">
  <defs
     id="defs14" />
  <sodipodi:namedview
     id="namedview12"
     pagecolor="#ffffff"
     bordercolor="#666666"
     borderopacity="1.0"
     inkscape:pageshadow="2"
     inkscape:pageopacity="0.0"
     inkscape:pagecheckerboard="0"
     showgrid="true"
     inkscape:snap-page="true"
     inkscape:zoom="28"
     inkscape:cx="12.357143"
     inkscape:cy="10.142857"
     inkscape:window-width="1920"
     inkscape:window-height="1043"
     inkscape:window-x="0"
     inkscape:window-y="0"
     inkscape:window-maximized="1"
     inkscape:current-layer="svg10"
     inkscape:showpageshadow="2"
     inkscape:deskcolor="#d1d1d1">
    <inkscape:grid
       type="xygrid"
       id="grid912" />
  </sodipodi:namedview>
  <path
     id="path240"
     style="fill:#808080;fill-opacity:1;fill-rule:evenodd;stroke-linecap:round"
     d="M 10.5 3 C 6.3578726 3 3 6.3578726 3 10.5 C 3 14.642128 6.3578726 18 10.5 18 C 12.316201 17.999746 14.070619 17.340451 15.4375 16.144531 L 20.646484 21.353516 L 21.353516 20.646484 L 16.144531 15.4375 C 17.340451 14.070619 17.999746 12.316201 18 10.5 C 18 6.3578726 14.642128 3 10.5 3 z M 10.5 4 A 6.5 6.5 0 0 1 17 10.5 A 6.5 6.5 0 0 1 10.5 17 A 6.5 6.5 0 0 1 4 10.5 A 6.5 6.5 0 0 1 10.5 4 z M 10.5 5 A 5.5 5.5 0 0 0 5 10.5 A 5.5 5.5 0 0 0 10.5 16 A 5.5 5.5 0 0 0 16 10.5 A 5.5 5.5 0 0 0 10.5 5 z " />
</svg>

<svg height="24" width="24" xmlns="http://www.w3.org/2000/svg"><path style="fill:gray;fill-opacity:1;stroke-linecap:round" d="M10.5 3a7.5 7.5 0 1 0 4.938 13.145l5.208 5.209.708-.708-5.21-5.209A7.5 7.5 0 0 0 10.5 3zm0 1a6.5 6.5 0 0 1 6.5 6.5 6.5 6.5 0 0 1-6.5 6.5A6.5 6.5 0 0 1 4 10.5 6.5 6.5 0 0 1 10.5 4zm0 1A5.5 5.5 0 0 0 5 10.5a5.5 5.5 0 0 0 5.5 5.5 5.5 5.5 0 0 0 5.5-5.5A5.5 5.5 0 0 0 10.5 5z"/></svg>
